X:10
T: Fetch My Lady Back Again
S: Rook manuscript
N: original has KS 1#; a second version, with 'My Laddie' in the title, has 2#
S: "pete stewart" <pete@wintonpottery.co.uk> tradtunes 2013-1-28
M: 6/8
L: 1/8
K: Amix
g|f2d AcA|ecA A2g|f2d ecA|dBGG2g|
f2d AcA|d2fe2g|f/g/af g2e|dBGG2|]
g|f/g/af e/f/ge|f/g/af A2g|f/g/af e/f/ge|
dBGG2g|f/g/af e/f/ge|f/g/af ecA|dfd cec|dBGG2|]
